T: Little Burnt Potato, The
M: 6/8
L: 1/8
K: Dmaj
f2g|:a^ga bag| afd Ade|fdf g2f|e2B- Bcd|
e2f e2d|TcAc a3 |1a^ga ba=g|f3-f2a-:|2 a^ga bac|d3- dag|]
[|:f2A f2A|f3 Tf2e|def agf|g3 gef|
gba Tf2e|dcB A2a-|1a^ga ba=g|f3-fag:|2a^ga bac|d3|]
